X: 222
T: Tattooed Lady (reel)
C: BB 1/06
N: 202059
L: 1/8
M: 4/4
R: reel
Q: 380
K: D
E | "D"A2 FA DFAd | "C" =cGGc "Am7"ecAG |\
"D" FAAF "C"G=ccG | "D" AdAF "C" GE=CE |
"D" DEFE DFAd | "C"=cG ~G2 "Am7"EGcA |\
"D" FAAF "C"G=ccG  | "Am" EAGE "D"D3 :|
e | "D"fddf "C"geeg | "D" fdag "Am"e=cAc |\
"G"BGBd "Am" =cBce |"D"df "C"e=c "D" d3e |
"D"fddf "C"geeg | "D" fdag "Am"e=cAc |\
"D"dAdf "G"gbag | "D"fd "Am"A=c "D" d3 :|
%%%%%%%%%%%%%%%%%%%%%%%%%%%%%%%%%%%%%%%%%%%
